src/components/icons/KitchensIcon.svg

<svg width="36" height="36" viewBox="0 0 36 36" fill="none" xmlns="http://www.w3.org/2000/svg">
<path d="M15.74 24.8304H20.2601V17.2969H15.74V24.8304ZM18 18.8036C18.4159 18.8036 18.7534 19.1411 18.7534 19.5569C18.7534 19.9728 18.4159 20.3103 18 20.3103C17.5842 20.3103 17.2467 19.9728 17.2467 19.5569C17.2467 19.1411 17.5842 18.8036 18 18.8036ZM18 21.817C18.4159 21.817 18.7534 22.1545 18.7534 22.5703C18.7534 22.9862 18.4159 23.3237 18 23.3237C17.5842 23.3237 17.2467 22.9862 17.2467 22.5703C17.2467 22.1545 17.5842 21.817 18 21.817Z" fill="#00ACC1"/>
<path d="M22.5201 8.2567H13.4799C10.8277 8.2567 8.62687 10.2244 8.26074 12.7768H27.7393C27.3732 10.2244 25.1724 8.2567 22.5201 8.2567Z" fill="#00ACC1"/>
<path d="M8.20648 14.2835V25.5837C8.20648 27.4033 9.50274 28.9251 11.2199 29.2746V30.1038C11.2199 30.5198 11.5572 30.8571 11.9732 30.8571C12.3893 30.8571 12.7266 30.5198 12.7266 30.1038V29.3504H23.2734V30.1038C23.2734 30.5198 23.6107 30.8571 24.0268 30.8571C24.4428 30.8571 24.7801 30.5198 24.7801 30.1038V29.2746C26.4973 28.9251 27.7935 27.4033 27.7935 25.5837V14.2835H8.20648ZM21.7667 25.5837C21.7667 25.9995 21.4292 26.337 21.0134 26.337H14.9866C14.5708 26.337 14.2333 25.9995 14.2333 25.5837V16.5435C14.2333 16.1277 14.5708 15.7902 14.9866 15.7902H21.0134C21.4292 15.7902 21.7667 16.1277 21.7667 16.5435V25.5837Z" fill="#00BCD4"/>
<path d="M11.2198 30.1038V29.2746C12.8818 28.9636 15.4171 28.0642 18.0791 26.3571H19.8571C20.9617 26.3571 21.8571 25.4617 21.8571 24.3571V23.3746C24.1937 21.124 26.35 18.1457 27.7935 14.2835V25.5837C27.7935 27.4033 26.4972 28.9251 24.7801 29.2746V30.1038C24.7801 30.5198 24.4428 30.8571 24.0268 30.8571C23.6107 30.8571 23.2734 30.5198 23.2734 30.1038V29.3504H12.7265V30.1038C12.7265 30.5198 12.3892 30.8571 11.9732 30.8571C11.5571 30.8571 11.2198 30.5198 11.2198 30.1038Z" fill="black" fill-opacity="0.1"/>
<path d="M21.7668 5.8962V6.75H14.2333V5.8962C14.2333 5.48035 14.5708 5.14285 14.9866 5.14285H21.0134C21.4293 5.14285 21.7668 5.48035 21.7668 5.8962Z" fill="#00ACC1"/>
<path d="M6.74149 12.7768C6.71387 13.0239 6.6998 13.2755 6.6998 13.5301V17.784C6.63602 17.7297 5.14288 17.2595 5.14288 15.6124V13.5301C5.14288 13.1143 5.48038 12.7768 5.89623 12.7768H6.74149Z" fill="#00ACC1"/>
<path d="M30.8571 13.5301V15.6124C30.8571 17.2403 29.3429 17.7481 29.3002 17.784V13.5301C29.3002 13.2755 29.2862 13.0239 29.2585 12.7768H30.1038C30.5196 12.7768 30.8571 13.1143 30.8571 13.5301Z" fill="#00ACC1"/>
</svg>

<svg width="36" height="36" fill="none" xmlns="http://www.w3.org/2000/svg"><path d="M15.74 24.83h4.52v-7.533h-4.52v7.533zM18 18.804a.754.754 0 110 1.507.754.754 0 010-1.507zm0 3.013a.754.754 0 110 1.507.754.754 0 010-1.507zM22.52 8.257h-9.04a5.28 5.28 0 00-5.22 4.52h19.48a5.28 5.28 0 00-5.22-4.52z" fill="#00ACC1"/><path d="M8.206 14.284v11.3a3.772 3.772 0 003.014 3.69v.83a.753.753 0 001.507 0v-.754h10.546v.754a.753.753 0 001.507 0v-.83a3.772 3.772 0 003.014-3.69v-11.3H8.206zm13.56 11.3a.754.754 0 01-.753.753h-6.026a.754.754 0 01-.754-.753v-9.04c0-.416.338-.754.754-.754h6.026c.416 0 .754.338.754.754v9.04z" fill="#00BCD4"/><path d="M11.22 30.104v-.83c1.662-.31 4.197-1.21 6.86-2.917h1.777a2 2 0 002-2v-.982c2.337-2.251 4.493-5.23 5.937-9.091v11.3a3.772 3.772 0 01-3.014 3.69v.83a.753.753 0 01-1.507 0v-.754H12.727v.754a.753.753 0 01-1.507 0z" fill="#000" fill-opacity=".1"/><path d="M21.767 5.896v.854h-7.534v-.854c0-.416.338-.753.754-.753h6.026c.416 0 .754.337.754.753zM6.741 12.777a6.783 6.783 0 00-.041.753v4.254c-.064-.054-1.557-.524-1.557-2.172V13.53c0-.416.337-.753.753-.753h.845zM30.857 13.53v2.082c0 1.628-1.514 2.136-1.557 2.172V13.53c0-.255-.014-.506-.041-.753h.845c.416 0 .753.337.753.753z" fill="#00ACC1"/></svg>
